src/assets/svgs/github.svg

<svg xmlns="http://www.w3.org/2000/svg" width="64" height="64"><path fill="currentColor" d="M32 0C14 0 0 14 0 32c0 21 19 30 22 30 2 0 2-1 2-2v-5c-7 2-10-2-11-5 0 0 0-1-2-3-1-1-5-3-1-3 3 0 5 4 5 4 3 4 7 3 9 2 0-2 2-4 2-4-8-1-14-4-14-15 0-4 1-7 3-9 0 0-2-4 0-9 0 0 5 0 9 4 3-2 13-2 16 0 4-4 9-4 9-4 2 7 0 9 0 9 2 2 3 5 3 9 0 11-7 14-14 15 1 1 2 3 2 6v8c0 1 0 2 2 2 3 0 22-9 22-30C64 14 50 0 32 0Z"/></svg>

<svg width="64px" height="64px" viewBox="0 0 64 64" id="i-github" xmlns="http://www.w3.org/2000/svg">
    <path stroke-width="0" fill="currentColor" d="M32 0 C14 0 0 14 0 32 0 53 19 62 22 62 24 62 24 61 24 60 L24 55 C17 57 14 53 13 50 13 50 13 49 11 47 10 46 6 44 10 44 13 44 15 48 15 48 18 52 22 51 24 50 24 48 26 46 26 46 18 45 12 42 12 31 12 27 13 24 15 22 15 22 13 18 15 13 15 13 20 13 24 17 27 15 37 15 40 17 44 13 49 13 49 13 51 20 49 22 49 22 51 24 52 27 52 31 52 42 45 45 38 46 39 47 40 49 40 52 L40 60 C40 61 40 62 42 62 45 62 64 53 64 32 64 14 50 0 32 0 Z" />
</svg>
